templates/flag_icons/al.svg

<?xml version="1.0" encoding="UTF-8" standalone="no"?>
<svg width="23px" height="17px" viewBox="0 0 23 17" version="1.1" xmlns="http://www.w3.org/2000/svg" xmlns:xlink="http://www.w3.org/1999/xlink">
    <!-- Generator: Sketch 3.7.2 (28276) - http://www.bohemiancoding.com/sketch -->
    <title>AL</title>
    <desc>Created with Sketch.</desc>
    <defs>
        <linearGradient x1="50%" y1="0%" x2="50%" y2="100%" id="linearGradient-1">
            <stop stop-color="#FFFFFF" offset="0%"></stop>
            <stop stop-color="#F0F0F0" offset="100%"></stop>
        </linearGradient>
        <rect id="path-2" x="0" y="0" width="21" height="15" rx="1.5"></rect>
        <filter x="-50%" y="-50%" width="200%" height="200%" filterUnits="objectBoundingBox" id="filter-4">
            <feOffset dx="0" dy="0.5" in="SourceAlpha" result="shadowOffsetOuter1"></feOffset>
            <feGaussianBlur stdDeviation="0.5" in="shadowOffsetOuter1" result="shadowBlurOuter1"></feGaussianBlur>
            <feColorMatrix values="0 0 0 0 0   0 0 0 0 0   0 0 0 0 0  0 0 0 0.16 0" type="matrix" in="shadowBlurOuter1"></feColorMatrix>
        </filter>
        <linearGradient x1="50%" y1="0%" x2="50%" y2="100%" id="linearGradient-5">
            <stop stop-color="#EE343B" offset="0%"></stop>
            <stop stop-color="#E2222A" offset="100%"></stop>
        </linearGradient>
        <linearGradient x1="50%" y1="0%" x2="50%" y2="100%" id="linearGradient-6">
            <stop stop-color="#262626" offset="0%"></stop>
            <stop stop-color="#0C0C0C" offset="100%"></stop>
        </linearGradient>
    </defs>
    <g id="Flag-Kit" stroke="none" stroke-width="1" fill="none" fill-rule="evenodd">
        <g id="AL">
            <g id="BE-Copy-9" transform="translate(1.000000, 1.000000)">
                <mask id="mask-3" fill="white">
                    <use xlink:href="#path-2"></use>
                </mask>
                <g id="Mask">
                    <use fill="black" fill-opacity="1" filter="url(#filter-4)" xlink:href="#path-2"></use>
                    <use fill="url(#linearGradient-1)" fill-rule="evenodd" xlink:href="#path-2"></use>
                </g>
                <rect id="Mask" fill="url(#linearGradient-5)" mask="url(#mask-3)" x="0" y="0" width="21" height="15"></rect>
                <path d="M9.34790039,3.34790039 C9.15576031,3.15576031 8.81607056,3.12261963 8.59011841,3.27325439 L7.90988159,3.72674561 C7.68351024,3.87765984 7.69907951,4.09953976 7.94386482,4.22193241 L9.05613518,4.77806759 C9.30127495,4.90063747 9.5,5.23193359 9.5,5.5 L9.5,5.5 C9.5,5.77614237 9.26806641,6 9,6 L9,6 C8.72385763,6 8.30092049,5.90046024 8.05613518,5.77806759 L6.94386482,5.22193241 C6.69872505,5.09936253 6.34375,5.15625 6.15024853,5.34975147 L5.84975147,5.65024853 C5.65658907,5.84341093 5.69907951,6.09953976 5.94386482,6.22193241 L7.05613518,6.77806759 C7.30127495,6.90063747 7.31607056,7.12261963 7.09011841,7.27325439 L6.40988159,7.72674561 C6.18351024,7.87765984 6.21314859,8.04262972 6.48202515,8.09640503 L8.01797485,8.40359497 C8.28418999,8.456838 8.31542969,8.63842773 8.09527016,8.80354738 L6.90472984,9.69645262 C6.68120372,9.86409721 6.73193359,10 7,10 L7,10 C7.27614237,10 7.71403503,9.94649124 7.98414421,9.87896395 L9.01585579,9.62103605 C9.28324125,9.55418969 9.37738037,9.68392944 9.22674561,9.90988159 L8.77325439,10.5901184 C8.62234016,10.8164898 8.72133017,11 9.00783157,11 L9.49216843,11 C9.77263606,11 10.0695229,11.2085686 10.1582031,11.4746094 L10.3417969,12.0253906 C10.42917,12.2875101 10.5695229,12.2914314 10.6582031,12.0253906 L10.8417969,11.4746094 C10.92917,11.2124899 11.2213302,11 11.5078316,11 L11.9921684,11 C12.2726361,11 12.3773804,10.8160706 12.2267456,10.5901184 L11.7732544,9.90988159 C11.6223402,9.68351024 11.714035,9.55350876 11.9841442,9.62103605 L13.0158558,9.87896395 C13.2832413,9.94581031 13.7319336,10 14,10 L14,10 C14.2761424,10 14.3154297,9.86157227 14.0952702,9.69645262 L12.9047298,8.80354738 C12.6812037,8.63590279 12.7131486,8.45737028 12.9820251,8.40359497 L14.5179749,8.09640503 C14.78419,8.043162 14.8160706,7.87738037 14.5901184,7.72674561 L13.9098816,7.27325439 C13.6835102,7.12234016 13.6990795,6.90046024 13.9438648,6.77806759 L15.0561352,6.22193241 C15.3012749,6.09936253 15.34375,5.84375 15.1502485,5.65024853 L14.8497515,5.34975147 C14.6565891,5.15658907 14.3009205,5.09953976 14.0561352,5.22193241 L12.9438648,5.77806759 C12.6987251,5.90063747 12.2680664,6 12,6 L12,6 C11.7238576,6 11.5,5.76806641 11.5,5.5 L11.5,5.5 C11.5,5.22385763 11.7034302,4.89828491 11.9520178,4.77399111 L13.5,4 L12.4098816,3.27325439 C12.1835102,3.12234016 11.8394737,3.16052628 11.6520996,3.34790039 L10.8479004,4.15209961 C10.6557603,4.34423969 10.3394737,4.33947372 10.1520996,4.15209961 L9.34790039,3.34790039 Z" id="Line" fill="url(#linearGradient-6)" mask="url(#mask-3)"></path>
                <rect id="Depth" mask="url(#mask-3)" x="0" y="0" width="21" height="15" rx="1.5"></rect>
            </g>
        </g>
    </g>
</svg>

<svg width="23" height="17" viewBox="0 0 23 17" xmlns="http://www.w3.org/2000/svg" xmlns:xlink="http://www.w3.org/1999/xlink"><title>AL</title><defs><linearGradient x1="50%" y1="0%" x2="50%" y2="100%" id="c"><stop stop-color="#FFF" offset="0%"/><stop stop-color="#F0F0F0" offset="100%"/></linearGradient><rect id="a" width="21" height="15" rx="1.5"/><filter x="-50%" y="-50%" width="200%" height="200%" filterUnits="objectBoundingBox" id="b"><feOffset dy=".5" in="SourceAlpha" result="shadowOffsetOuter1"/><feGaussianBlur stdDeviation=".5" in="shadowOffsetOuter1" result="shadowBlurOuter1"/><feColorMatrix values="0 0 0 0 0 0 0 0 0 0 0 0 0 0 0 0 0 0 0.16 0" in="shadowBlurOuter1"/></filter><linearGradient x1="50%" y1="0%" x2="50%" y2="100%" id="d"><stop stop-color="#EE343B" offset="0%"/><stop stop-color="#E2222A" offset="100%"/></linearGradient><linearGradient x1="50%" y1="0%" x2="50%" y2="100%" id="f"><stop stop-color="#262626" offset="0%"/><stop stop-color="#0C0C0C" offset="100%"/></linearGradient></defs><g transform="translate(1 1)" fill="none" fill-rule="evenodd"><mask id="e" fill="#fff"><use xlink:href="#a"/></mask><use fill="#000" filter="url(#b)" xlink:href="#a"/><use fill="url(#c)" xlink:href="#a"/><path fill="url(#d)" mask="url(#e)" d="M0 0h21v15H0z"/><path d="M9.35 3.35a.63.63 0 0 0-.76-.08l-.68.46c-.23.15-.21.37.03.5l1.12.55a.9.9 0 0 1 .44.72.5.5 0 0 1-.5.5c-.28 0-.7-.1-.94-.22l-1.12-.56a.73.73 0 0 0-.79.13l-.3.3c-.2.2-.15.45.1.57l1.1.56c.25.12.27.34.04.5l-.68.45c-.23.15-.2.31.07.37l1.54.3c.26.06.3.24.08.4l-1.2.9c-.22.16-.17.3.1.3.28 0 .71-.05.98-.12l1.04-.26c.26-.07.36.06.2.29l-.45.68c-.15.23-.05.41.24.41h.48c.28 0 .58.2.67.47l.18.56c.09.26.23.26.32 0l.18-.56a.74.74 0 0 1 .67-.47h.48c.28 0 .39-.18.24-.41l-.46-.68c-.15-.23-.06-.36.21-.29l1.04.26c.26.07.71.12.98.12.28 0 .32-.14.1-.3l-1.2-.9c-.22-.16-.19-.34.08-.4l1.54-.3c.26-.06.3-.22.07-.37l-.68-.46c-.23-.15-.21-.37.03-.5l1.12-.55c.24-.12.28-.38.09-.57l-.3-.3a.73.73 0 0 0-.8-.13l-1.1.56c-.25.12-.68.22-.95.22a.5.5 0 0 1-.5-.5c0-.28.2-.6.45-.73L13.5 4l-1.09-.73a.63.63 0 0 0-.76.08l-.8.8a.5.5 0 0 1-.7 0l-.8-.8z" fill="url(#f)" mask="url(#e)"/><rect mask="url(#e)" width="21" height="15" rx="1.5"/></g></svg>
